X:124020
T:Barren Rocks of Aden
H: The tune is said to have been composed by piper James Mauchline, who was delighted that his regiment was leaving the hot, dry port of Aden, in what is now South Yemen, in Arabia. It rains less than once a year in Aden and the Old Town is inside the shell of an extinct volcano.  Regimental tradition says that James Mauchline gave it no title. While a detachment of the 78th Seaforth Highlanders Regiment was stationed in Aden, Pipe Major Alexander Mackellar rearranged and named the tune.
C: James Mauchline (Gordon Highlanders)/ Pipe Major A MacKellar (78th Seaforth)
B: Scots Guards (I.116) / Canadian Cadet Program
O:Kevin Fraser
Z:Kevin Fraser
Q:1/4=90
K:HP
M:2/4
L:1/8
R:March
U: R = ///
U: r = //
U: V = !accent!
V:M gstem=up stem=down name="Melody"
V:H gstem=up stem=down name="Harmony"
V:C gstem=up stem=down name="C-Harmony"
V:S gstem=up stem=down dyn=up stafflines=1 clef=perc middle=G name="Snare" sname="Snare"
V:B gstem=up stem=down clef=none dyn=up name="Bass"
V:T gstem=up stem=down clef=none dyn=up name="Tenor"
V:BB gstem=up stem=down name="Brass Bass" sname="Bass" transpose=-1  octave=0 clef=bass
V:BC gstem=up stem=down name="Brass Chord" sname="Chord" transpose=-1 octave=+1 clef=treble
V:BD gstem=up stem=down name="Brass Chord 2" sname="Chord 2" transpose=-1 octave=+1 clef=treble
V:P gstem=up stem=down name="Piano" octave=-1
% I:MIDI=program 110
I:MIDI=program 1
%%score {M H BC BD BB}
%%score {M H}
%%landscape
[V:M]           |: e                 | {g}f>g       {fg}f>e                 | {Gdc}df       {AGAG}Ad                | {gcd}ce {AGAG}A>e           | {g}fA   {Gdc}d>e     |
w: e | che di veche e | tra ve enrarin a | hoto e enrarin e | che en tra e
[V:M]        x   |  {g}f>g  {fg}f>e   | {Gdc}df      {AGAG}Ad                | {gcd}ce       {AGAG}A{g}f/2>e/2       | {Gdc}d2 {gdG}d             :|
w:  che di veche e | tra ve enrarin a | hoto e enrarin che e | tra hadema
[V:M]           |: {gf}g             | {ag}a>f      {Gdc}d>f                | {gef}ef       {AGAG}A{g}e/2>f/2       | {gf}g>e {gcd}ce             | {Gdc}df {AGAG}A{gf}g |
w: vili | dili ve tra ve | hete ve enharin he ve | vili e hoto e | tra ve enharin vili
[V:M]         x  |  {ag}a>f {Gdc}d>f  | {gef}ef      {AGAG}A{g}e/2>f/2       | {gf}g>e       {gcd}c{e}A              | {Gdc}d2 {gdG}d             :|
w: dili ve tra ve | hete ve enharin he ve | vili e hoto un | tra hadema
[V:H]           |: e                 | {g}f/d/A/d/       {fg}f/d/A/e/       | {Gdc}d/A/f/A/       {AGAG}A/f/d/B/    | {gcd}c/A/e/a/ {AGAG}Ac/e/           | {g}f/d/A/f/   {Gdc}dA/e/     |
[V:H]      x     |  {g}f/d/A/d/       {fg}f/d/A/e/       | {Gdc}d/A/f/A/       {AGAG}A/f/d/B/    | {gcd}c/A/e/a/ {GAG}A/d/f/>e/       | {Gdc}d2 {gdG}d             :|
[V:H]           |: {gf}g             | {ag}a/g/d/f/ {Gdc}f/a/d/f/           | {gef}e/c/a/f/ {AGAG}A{g}e/2>f/2       | {gcd}cA c/d/e/a/             | {Gdc}df {AGAG}A{gf}g |
[V:H]       x    |  {ag}a/f/d/f/ {gfg}f/a/d/f/  | {gef}ef      {AGAG}A{g}e/2>f/2       | {gf}g/e/c/e/       {gcd}c/e/{e}A/e/              | {Gdc}d/B/A/f/ {gdG}d             :|
[V:BB][K:Bbmix] |: z                 | E,2          B,2                     | E,2           B,2                     | B,2     D,2                 | E,2     B,2          |
[V:BB]          |  E,2     E,2       | E,2          B,2                     | B,2           D,2                     | E,      z         E        :|
[V:BB]          |: z                 | E,2          B,2                     | E,2           B,2                     | B,2     D,2                 | E,2     E, z         |
[V:BB]          |  E,2     B,2       | E,2          B,2                     | B,2           F,2                     | E,2     E                  :|
[V:BC][K:Bbmix] |: z                 | z            [B]               z [B] | z             [B]               z [B] | z       [A]       z [B,DA]  | z       [B] z [B]    |
[V:BC]          |  z       [B] z [B] | z            [B]               z [B] | z             [A]               z [A] | [B]     z         [B]      :|
[V:BC]          |: z                 | z            [B]               z [B] | z             [B]               z [B] | z       [A]       F [A]     | [B]     z [B] z      |
[V:BC]          |  z       [B] z [B] | z            [B]               z [B] | z             [A]               F [A] | [B]     z         [B]      :|
[V:BD][K:Bbmix] |: z                 | z            [G]               z [G] | z             [G]               z [G] | z       [D]       F, [D]    | z       [G] [G] z    |
[V:BD]          |  z       [G] z [G] | z            [G]               z [G] | z             [D]               z [D] | [G]     z         [G]      :|
[V:BD]          |: z                 | z            [G]               z [G] | z             [G]               z [G] | z       [D]       F [D]     | [G]     z [G] z      |
[V:BD]          |  z       [G] z [G] | z            [G]               z [G] | z             [D]               F [D] | z       [G]       [G]      :|

[V:P]           |: z                 | [dfa]2       [dfa]2                  | [dfa]2        [dfa]2                  | [Ace]2  [Ace]2              | [dfa]2  [Ace]2       |
[V:P]           |  [dfa]2  [dfa]2    | [dfa]2       [dfa]2                  | [Ace]2        [Ace]2                  | [dfa]2  [dfa]1             :|
[V:P]           |: z                 | [dfa]2       [dfa]2                  | [Ace]2        [Ace]2                  | [Ace]2  [Ace]2              | [dfa]2  [dfa]2       |
[V:P]           |  [dfa]2  [dfa]2    | [Ace]2       [Ace]2                  | [Ace]2        [Ace]2                  | [dfa]2  [dfa]1             :|


W: ASPD plays with Mairi's Wedding
W:
W: The tune is associated with the Gordon Highlanders.
W:
W: The tune is used for the Scottish Country Dance "The Gay Gordons"
W:
W:See the laddie ower there, wi the tartan kilt and the twa legs bare
W:An aa the ladies they declare, 'She's a fine braw chiel is her nainsel'
W:


